symbols/web/disabled_by_default/materialsymbolsoutlined/disabled_by_default_gradN25fill1_48px.svg

<svg xmlns="http://www.w3.org/2000/svg" height="48" width="48"><path d="M16.8 33.2 24 26l7.2 7.2 2.05-2-7.2-7.2 7.2-7.2-2.05-2.05-7.2 7.2-7.2-7.2-2 2.05L22 24l-7.2 7.2Zm-7.7 8.55q-1.15 0-2-.85-.85-.85-.85-2V9.1q0-1.15.85-2.025t2-.875h29.8q1.15 0 2.025.875T41.8 9.1v29.8q0 1.15-.875 2-.875.85-2.025.85Z"/></svg>

<svg xmlns="http://www.w3.org/2000/svg" height="48" width="48"><path d="M16.8 33.2 24 26 31.2 33.2 33.25 31.2 26.05 24 33.25 16.8 31.2 14.75 24 21.95 16.8 14.75 14.8 16.8 22 24 14.8 31.2ZM9.1 41.75Q7.9 41.75 7.075 40.925Q6.25 40.1 6.25 38.9V9.1Q6.25 7.9 7.075 7.05Q7.9 6.2 9.1 6.2H38.9Q40.1 6.2 40.95 7.05Q41.8 7.9 41.8 9.1V38.9Q41.8 40.1 40.95 40.925Q40.1 41.75 38.9 41.75Z"/></svg>
